images/corvid-relief.svg

<svg width="275" height="218" viewBox="0 0 275 218" fill="none" xmlns="http://www.w3.org/2000/svg">
<g clip-path="url(#clip0)">
<path d="M272.981 176.908C271.58 176.533 270.05 177.33 269.647 178.833L269.584 179.068L263.286 177.38C263.678 175.276 263.885 173.106 263.885 170.89C263.885 168.673 263.678 166.503 263.286 164.398L269.584 162.711L269.647 162.946C270.05 164.449 271.58 165.246 272.981 164.871C274.433 164.482 275.295 162.989 274.905 161.537L273.37 155.808C272.981 154.356 271.489 153.494 270.037 153.884C268.585 154.273 267.723 155.765 268.112 157.217L268.175 157.452L261.875 159.141C260.407 154.988 258.185 151.19 255.372 147.911L259.996 143.287L260.168 143.459C261.231 144.522 262.955 144.522 264.018 143.459C265.081 142.396 265.081 140.673 264.018 139.61L259.824 135.416C258.761 134.353 257.038 134.353 255.975 135.416C254.912 136.479 254.912 138.202 255.975 139.265L256.147 139.437L251.523 144.061C248.244 141.249 244.445 139.026 240.292 137.558L241.98 131.259L242.215 131.322C243.724 131.726 245.176 130.79 245.549 129.397C245.938 127.945 245.077 126.452 243.625 126.063L237.896 124.528C236.444 124.139 234.951 125.001 234.562 126.453C234.173 127.905 235.035 129.397 236.487 129.787L236.722 129.849L235.034 136.148C232.929 135.756 230.76 135.548 228.544 135.548C226.327 135.548 224.158 135.756 222.053 136.148L220.365 129.849L220.6 129.787C222.052 129.397 222.914 127.905 222.525 126.453C222.136 125.001 220.644 124.139 219.191 124.528L213.463 126.063C212.011 126.452 211.149 127.944 211.538 129.397C211.911 130.79 213.363 131.726 214.872 131.321L215.107 131.258L216.795 137.558C212.643 139.026 208.844 141.248 205.564 144.061L200.94 139.437L201.113 139.265C202.176 138.202 202.176 136.478 201.113 135.415C200.05 134.352 198.326 134.352 197.263 135.415L193.07 139.609C192.006 140.672 192.006 142.396 193.07 143.459C194.133 144.522 195.856 144.521 196.919 143.459L197.091 143.286L201.715 147.91C198.903 151.189 196.681 154.988 195.212 159.14L188.912 157.452L188.975 157.217C189.364 155.765 188.503 154.272 187.051 153.883C185.598 153.494 184.106 154.356 183.717 155.808L182.181 161.537C181.792 162.989 182.654 164.482 184.106 164.871C185.507 165.246 187.037 164.449 187.44 162.946L187.503 162.711L193.801 164.399C193.409 166.504 193.201 168.673 193.201 170.89C193.201 173.107 193.409 175.276 193.801 177.381L187.503 179.068L187.44 178.833C187.037 177.33 185.507 176.533 184.106 176.908C182.654 177.297 181.792 178.79 182.181 180.242L183.716 185.971C184.106 187.423 185.597 188.285 187.05 187.895C188.502 187.506 189.364 186.014 188.975 184.562L188.912 184.327L195.212 182.639C196.68 186.791 198.902 190.59 201.714 193.869L197.09 198.493L196.918 198.321C195.856 197.258 194.132 197.258 193.069 198.321C192.006 199.384 192.006 201.107 193.069 202.17L197.262 206.364C198.325 207.427 200.049 207.427 201.112 206.364C202.175 205.301 202.175 203.578 201.112 202.515L200.94 202.342L205.564 197.719C208.843 200.531 212.642 202.754 216.794 204.221L215.106 210.521L214.871 210.458C213.362 210.054 211.911 210.99 211.537 212.383C211.148 213.835 212.01 215.328 213.462 215.717L219.191 217.252C220.643 217.641 222.136 216.779 222.524 215.327C222.914 213.875 222.052 212.382 220.6 211.993L220.365 211.93L222.052 205.632C224.157 206.024 226.326 206.232 228.543 206.232C230.76 206.232 232.929 206.024 235.034 205.632L236.721 211.93L236.486 211.993C235.034 212.382 234.172 213.875 234.562 215.327C234.951 216.779 236.443 217.641 237.895 217.252L243.624 215.717C245.076 215.328 245.938 213.835 245.549 212.383C245.175 210.989 243.724 210.054 242.215 210.458L241.98 210.521L240.292 204.221C244.444 202.753 248.243 200.531 251.522 197.719L256.146 202.342L255.974 202.515C254.911 203.578 254.911 205.301 255.974 206.364C257.037 207.427 258.76 207.427 259.824 206.364L264.017 202.17C265.08 201.107 265.08 199.384 264.017 198.321C262.954 197.258 261.23 197.258 260.168 198.321L259.996 198.493L255.372 193.869C258.184 190.59 260.407 186.791 261.874 182.639L268.174 184.327L268.111 184.562C267.722 186.014 268.584 187.506 270.036 187.895C271.489 188.285 272.981 187.423 273.37 185.971L274.905 180.242C275.295 178.79 274.433 177.297 272.981 176.908V176.908ZM228.544 200.788C212.058 200.788 198.646 187.376 198.646 170.89C198.646 154.404 212.058 140.992 228.544 140.992C245.029 140.992 258.441 154.404 258.441 170.89C258.441 187.376 245.029 200.788 228.544 200.788Z" fill="#04458F"/>
<path d="M228.544 153.203C230.048 153.203 231.266 151.984 231.266 150.481C231.266 148.977 230.048 147.759 228.544 147.759C227.041 147.759 225.822 148.977 225.822 150.481C225.822 151.984 227.041 153.203 228.544 153.203Z" fill="#04458F"/>
<path d="M228.544 194.021C230.048 194.021 231.266 192.802 231.266 191.299C231.266 189.796 230.048 188.577 228.544 188.577C227.041 188.577 225.822 189.796 225.822 191.299C225.822 192.802 227.041 194.021 228.544 194.021Z" fill="#04458F"/>
<path d="M222.713 179.443C224.217 179.443 225.435 178.224 225.435 176.721C225.435 175.217 224.217 173.999 222.713 173.999C221.21 173.999 219.991 175.217 219.991 176.721C219.991 178.224 221.21 179.443 222.713 179.443Z" fill="#04458F"/>
<path d="M234.375 179.443C235.879 179.443 237.097 178.224 237.097 176.721C237.097 175.217 235.879 173.999 234.375 173.999C232.872 173.999 231.653 175.217 231.653 176.721C231.653 178.224 232.872 179.443 234.375 179.443Z" fill="#04458F"/>
<path d="M234.375 167.781C235.879 167.781 237.097 166.562 237.097 165.059C237.097 163.555 235.879 162.337 234.375 162.337C232.872 162.337 231.653 163.555 231.653 165.059C231.653 166.562 232.872 167.781 234.375 167.781Z" fill="#04458F"/>
<path d="M222.713 167.781C224.217 167.781 225.435 166.562 225.435 165.059C225.435 163.555 224.217 162.337 222.713 162.337C221.21 162.337 219.991 163.555 219.991 165.059C219.991 166.562 221.21 167.781 222.713 167.781Z" fill="#04458F"/>
<path d="M248.953 173.612C250.457 173.612 251.675 172.393 251.675 170.89C251.675 169.387 250.457 168.168 248.953 168.168C247.45 168.168 246.231 169.387 246.231 170.89C246.231 172.393 247.45 173.612 248.953 173.612Z" fill="#04458F"/>
<path d="M208.135 173.612C209.638 173.612 210.857 172.393 210.857 170.89C210.857 169.387 209.638 168.168 208.135 168.168C206.632 168.168 205.413 169.387 205.413 170.89C205.413 172.393 206.632 173.612 208.135 173.612Z" fill="#04458F"/>
<path d="M242.976 159.181C244.479 159.181 245.698 157.963 245.698 156.459C245.698 154.956 244.479 153.737 242.976 153.737C241.473 153.737 240.254 154.956 240.254 156.459C240.254 157.963 241.473 159.181 242.976 159.181Z" fill="#04458F"/>
<path d="M214.113 188.044C215.616 188.044 216.835 186.825 216.835 185.322C216.835 183.819 215.616 182.6 214.113 182.6C212.61 182.6 211.391 183.819 211.391 185.322C211.391 186.825 212.61 188.044 214.113 188.044Z" fill="#04458F"/>
<path d="M242.976 188.044C244.479 188.044 245.698 186.825 245.698 185.322C245.698 183.819 244.479 182.6 242.976 182.6C241.473 182.6 240.254 183.819 240.254 185.322C240.254 186.825 241.473 188.044 242.976 188.044Z" fill="#04458F"/>
<path d="M214.113 159.181C215.616 159.181 216.835 157.963 216.835 156.459C216.835 154.956 215.616 153.737 214.113 153.737C212.61 153.737 211.391 154.956 211.391 156.459C211.391 157.963 212.61 159.181 214.113 159.181Z" fill="#04458F"/>
</g>
<path d="M182.005 0H4.91905C3.61443 0 2.36326 0.518255 1.44076 1.44076C0.518255 2.36326 0 3.61443 0 4.91905V103.3C0 104.605 0.518255 105.856 1.44076 106.778C2.36326 107.701 3.61443 108.219 4.91905 108.219H182.005C183.309 108.219 184.561 107.701 185.483 106.778C186.406 105.856 186.924 104.605 186.924 103.3V4.91905C186.924 3.61443 186.406 2.36326 185.483 1.44076C184.561 0.518255 183.309 0 182.005 0ZM9.83809 9.83809H23.9066C23.0154 13.2178 21.2437 16.3006 18.7722 18.7722C16.3006 21.2437 13.2178 23.0154 9.83809 23.9066V9.83809ZM9.83809 98.3809V84.3125C13.2178 85.2037 16.3006 86.9754 18.7722 89.4469C21.2437 91.9184 23.0154 95.0012 23.9066 98.3809H9.83809ZM177.086 98.3809H163.017C163.908 95.0012 165.68 91.9184 168.152 89.4469C170.623 86.9754 173.706 85.2037 177.086 84.3125V98.3809ZM177.086 74.2284C171.05 75.2481 165.482 78.1214 161.154 82.4495C156.826 86.7776 153.953 92.3457 152.933 98.3809H33.9906C32.9709 92.3457 30.0976 86.7776 25.7695 82.4495C21.4415 78.1214 15.8734 75.2481 9.83809 74.2284V33.9906C15.8734 32.9709 21.4415 30.0976 25.7695 25.7695C30.0976 21.4415 32.9709 15.8734 33.9906 9.83809H152.933C153.953 15.8734 156.826 21.4415 161.154 25.7695C165.482 30.0976 171.05 32.9709 177.086 33.9906V74.2284ZM177.086 23.9066C173.706 23.0154 170.623 21.2437 168.152 18.7722C165.68 16.3006 163.908 13.2178 163.017 9.83809H177.086V23.9066Z" fill="#04458F"/>
<path d="M34.4331 49.1904H49.1902V59.0285H34.4331V49.1904Z" fill="#04458F"/>
<path d="M137.733 49.1904H152.491V59.0285H137.733V49.1904Z" fill="#04458F"/>
<path d="M93.4618 14.7571C85.6786 14.7571 78.0702 17.0651 71.5988 21.3892C65.1273 25.7132 60.0834 31.8592 57.1049 39.05C54.1264 46.2407 53.3471 54.1531 54.8655 61.7867C56.384 69.4203 60.1319 76.4323 65.6354 81.9358C71.139 87.4393 78.1509 91.1873 85.7845 92.7057C93.4181 94.2241 101.331 93.4448 108.521 90.4663C115.712 87.4878 121.858 82.4439 126.182 75.9725C130.506 69.501 132.814 61.8926 132.814 54.1095C132.802 43.6762 128.653 33.6735 121.275 26.2961C113.898 18.9186 103.895 14.7688 93.4618 14.7571V14.7571ZM93.4618 83.6237C87.6244 83.6237 81.9181 81.8928 77.0645 78.6497C72.2109 75.4066 68.428 70.7971 66.1941 65.4041C63.9603 60.0111 63.3758 54.0767 64.5146 48.3515C65.6534 42.6263 68.4644 37.3674 72.592 33.2397C76.7197 29.1121 81.9786 26.3011 87.7038 25.1623C93.429 24.0235 99.3634 24.6079 104.756 26.8418C110.149 29.0757 114.759 32.8586 118.002 37.7122C121.245 42.5658 122.976 48.2721 122.976 54.1095C122.968 61.9347 119.856 69.4373 114.323 74.9706C108.79 80.5039 101.287 83.6159 93.4618 83.6237Z" fill="#04458F"/>
<path d="M78.6656 196.762H59.0287V147.611H68.3356L54.1097 122.976L39.8838 147.611H49.1906V201.681C49.1906 202.985 49.7089 204.237 50.6314 205.159C51.5539 206.082 52.8051 206.6 54.1097 206.6H78.6656V215.907L103.3 201.681L78.6656 187.455V196.762Z" fill="#04458F"/>
<path d="M270.007 83.5747L255.791 108.219L241.575 83.5747H250.872V59.0286H226.326V68.3256L201.681 54.1096L226.326 39.8936V49.1906H255.791C257.095 49.1906 258.346 49.7088 259.269 50.6313C260.191 51.5538 260.71 52.805 260.71 54.1096V83.5747H270.007Z" fill="#04458F"/>
<defs>
<clipPath id="clip0">
<rect x="182.089" y="124.434" width="92.911" height="92.911" fill="white"/>
</clipPath>
</defs>
</svg>

<svg width="275" height="218" fill="none" xmlns="http://www.w3.org/2000/svg"><g clip-path="url(#clip0)" fill="#04458F"><path d="M272.981 176.908c-1.401-.375-2.931.422-3.334 1.925l-.063.235-6.298-1.688a35.415 35.415 0 000-12.982l6.298-1.687.063.235c.403 1.503 1.933 2.3 3.334 1.925a2.721 2.721 0 001.924-3.334l-1.535-5.729a2.722 2.722 0 00-5.258 1.409l.063.235-6.3 1.689a35.341 35.341 0 00-6.503-11.23l4.624-4.624.172.172a2.723 2.723 0 003.85-3.849l-4.194-4.194a2.721 2.721 0 10-3.849 3.849l.172.172-4.624 4.624a35.365 35.365 0 00-11.231-6.503l1.688-6.299.235.063c1.509.404 2.961-.532 3.334-1.925a2.722 2.722 0 00-1.924-3.334l-5.729-1.535a2.723 2.723 0 00-1.409 5.259l.235.062-1.688 6.299a35.424 35.424 0 00-12.981 0l-1.688-6.299.235-.062a2.723 2.723 0 00-1.409-5.259l-5.728 1.535a2.722 2.722 0 101.409 5.258l.235-.063 1.688 6.3a35.368 35.368 0 00-11.231 6.503l-4.624-4.624.173-.172a2.723 2.723 0 00-3.85-3.85l-4.193 4.194a2.72 2.72 0 103.849 3.85l.172-.173 4.624 4.624a35.39 35.39 0 00-6.503 11.23l-6.3-1.688.063-.235a2.722 2.722 0 10-5.258-1.409l-1.536 5.729a2.723 2.723 0 005.259 1.409l.063-.235 6.298 1.688a35.426 35.426 0 000 12.982l-6.298 1.687-.063-.235a2.723 2.723 0 00-5.259 1.409l1.535 5.729a2.722 2.722 0 005.259-1.409l-.063-.235 6.3-1.688a35.369 35.369 0 006.502 11.23l-4.624 4.624-.172-.172a2.721 2.721 0 10-3.849 3.849l4.193 4.194a2.723 2.723 0 003.85-3.849l-.172-.173 4.624-4.623a35.35 35.35 0 0011.23 6.502l-1.688 6.3-.235-.063a2.723 2.723 0 00-1.409 5.259l5.729 1.535a2.721 2.721 0 003.333-1.925 2.721 2.721 0 00-1.924-3.334l-.235-.063 1.687-6.298a35.426 35.426 0 0012.982 0l1.687 6.298-.235.063a2.722 2.722 0 001.409 5.259l5.729-1.535a2.723 2.723 0 00-1.409-5.259l-.235.063-1.688-6.3a35.369 35.369 0 0011.23-6.502l4.624 4.623-.172.173a2.721 2.721 0 103.85 3.849l4.193-4.194a2.721 2.721 0 10-3.849-3.849l-.172.172-4.624-4.624a35.35 35.35 0 006.502-11.23l6.3 1.688-.063.235a2.722 2.722 0 005.259 1.409l1.535-5.729a2.721 2.721 0 00-1.924-3.334zm-44.437 23.88c-16.486 0-29.898-13.412-29.898-29.898 0-16.486 13.412-29.898 29.898-29.898 16.485 0 29.897 13.412 29.897 29.898 0 16.486-13.412 29.898-29.897 29.898z"/><path d="M228.544 153.203a2.722 2.722 0 100-5.444 2.722 2.722 0 000 5.444zm0 40.818a2.722 2.722 0 100-5.444 2.722 2.722 0 000 5.444zm-5.831-14.578a2.722 2.722 0 100-5.444 2.722 2.722 0 000 5.444zm11.662 0a2.722 2.722 0 100-5.444 2.722 2.722 0 000 5.444zm0-11.662a2.722 2.722 0 100-5.444 2.722 2.722 0 000 5.444zm-11.662 0a2.722 2.722 0 100-5.444 2.722 2.722 0 000 5.444zm26.24 5.831a2.722 2.722 0 100-5.444 2.722 2.722 0 000 5.444zm-40.818 0a2.722 2.722 0 100-5.445 2.722 2.722 0 000 5.445zm34.841-14.431a2.722 2.722 0 100-5.444 2.722 2.722 0 000 5.444zm-28.863 28.863a2.722 2.722 0 100-5.445 2.722 2.722 0 000 5.445zm28.863 0a2.722 2.722 0 100-5.445 2.722 2.722 0 000 5.445zm-28.863-28.863a2.722 2.722 0 100-5.444 2.722 2.722 0 000 5.444z"/></g><path d="M182.005 0H4.919A4.919 4.919 0 000 4.92v98.38a4.917 4.917 0 004.92 4.919h177.085a4.917 4.917 0 004.919-4.919V4.919A4.917 4.917 0 00182.005 0zM9.838 9.838h14.069A19.76 19.76 0 019.838 23.907V9.838zm0 88.543V84.312a19.76 19.76 0 0114.069 14.069H9.838zm167.248 0h-14.069a19.754 19.754 0 0114.069-14.069v14.069zm0-24.153a29.473 29.473 0 00-24.153 24.153H33.991A29.475 29.475 0 009.838 74.228V33.991A29.474 29.474 0 0033.991 9.838h118.942a29.477 29.477 0 0024.153 24.153v40.237zm0-50.321a19.756 19.756 0 01-14.069-14.069h14.069v14.069z" fill="#04458F"/><path d="M34.433 49.19H49.19v9.839H34.433V49.19zm103.3 0h14.758v9.839h-14.758V49.19zM93.462 14.757a39.352 39.352 0 1039.352 39.352 39.396 39.396 0 00-39.352-39.352zm0 68.867a29.514 29.514 0 1129.514-29.514 29.546 29.546 0 01-29.514 29.514zM78.666 196.762H59.029v-49.151h9.307L54.11 122.976l-14.226 24.635h9.307v54.07a4.919 4.919 0 004.919 4.919h24.556v9.307l24.634-14.226-24.634-14.226v9.307zM270.007 83.575l-14.216 24.644-14.216-24.644h9.297V59.029h-24.546v9.297L201.681 54.11l24.645-14.216v9.297h29.465a4.92 4.92 0 014.919 4.919v29.465h9.297z" fill="#04458F"/><defs><clipPath id="clip0"><path fill="#fff" d="M182.089 124.434H275v92.911h-92.911z"/></clipPath></defs></svg>
